X:594
T: Das Kanapee (292), S. 606f
N: T0482
O: Luxemburg
S: Singendes Volk, Esch-Alzette 1937 posth.]
N: Straen, fff Witry, 17.1.1933
R: ???]
M: 4/4
L: 1/8
K: D
FFF | F3FFFED | A2E2z
AAA | A2zAA2BA | F2z3
FFF | F3FFFED | A2E2z
AAA | A3AA2BA | F2z3
AAA | GFE2zddd | ddA2z
AAd | c3BAGBB | A2z3
AAA | GFE2zddd | ddA2z
AAd | c3BAGFE | D2z3

@@@ Tune index: 8648
